X: 3
T: The Minstrel's Fancy
R: hornpipe
M: 4/4
L: 1/8
K: Dmaj
AFAd BGBd|AFAd f2fe|dfgf edBc|dBAF EFD2|AFAd BGBd|AFAd f2fe|dfgf edBc|1 defe d2dB:|2 defe d2ef||gfge cABc|dcde f2ef|gfge cABc|dBAF EFD2|AFAd BGBd|AFAd f2fe|dfgf edBc|1 defe d2ef:|2 defe d2dB||


Tune 2761	Setting 15990

